X:128
T: Es droehnet der Marsch der Kolonne,
N: D0195
O: Europa, Mitteleuropa, Deutschland, Brandenburg, Berlin
N: Inzipit = Transposition zum Lied
R: Soldaten - Lied
M: 4/4
L: 1/16
K: E
B,4 | E4E3F=G4F3E | F4F8
B4 | B4E4A6=G2 | F8z4
B,4 | E4E3F=G4F3E | F4F8
B4 | B4A2=G2A4G2F2 | =G8z4
B4 | B4=G3GG4A2B2 | A4=D3DD4
E2F2 | =G4E4E4F2G2 | F4B,4B,4
E3F | =G4E4F4d4 | E8z4
B4 | B4=G3GG4A2B2 | A4=D3DD4
E2F2 | =G4E4E4F2G2 | F4B,4B,4
E3F | =G4E4F4d4 | E8z4

@@@ Tune index: 2650
